www/assets/icons/contact_support.svg

<svg xmlns="http://www.w3.org/2000/svg" width="24" height="24" viewBox="0 0 24 24" fill='currentColor'><path d="M12 2c-4.69 0-8.5 3.81-8.5 8.5S7.31 19 12 19h.5v3c4.86-2.34 8-7 8-11.5C20.5 5.81 16.69 2 12 2m1 14.5h-2v-2h2zm0-3.5h-2c0-3.25 3-3 3-5 0-1.1-.9-2-2-2s-2 .9-2 2H8c0-2.21 1.79-4 4-4s4 1.79 4 4c0 2.5-3 2.75-3 5"/></svg>

<svg width="24" height="24" viewBox="0 0 24 24" xmlns="http://www.w3.org/2000/svg" fill='currentColor'><path d="M12 2C7.31 2 3.5 5.81 3.5 10.5C3.5 15.19 7.31 19 12 19H12.5V22C17.36 19.66 20.5 15 20.5 10.5C20.5 5.81 16.69 2 12 2ZM13 16.5H11V14.5H13V16.5ZM13 13H11C11 9.75 14 10 14 8C14 6.9 13.1 6 12 6C10.9 6 10 6.9 10 8H8C8 5.79 9.79 4 12 4C14.21 4 16 5.79 16 8C16 10.5 13 10.75 13 13Z"/></svg>
